X: 1
T: Ratevka
O: Bulgaria
M: 7/8
L: 1/8
K: DPhr^F
"A"\
[| "D"CDD D2 DE | (4FGAG F2 (3EDE | F3 FA GF | EDC D2 DC \
|     CDD D2 DE | (4FGAG F2 E2 | F7- | F7 |
|  "D"F2G AD BD | A2G GF (3EDE | F2D FA GF | EDC D2 DC \
| "Cm"DEC EC EG | F2E ED EC | D7 | A3 "fine"D2 z2 |]
"B"\
|: "D"c=Bd c_B AG | ABG A2 AD |1,3 cdd cB AG |  ABG A2 AD :|2,4 BAG F2 FE | "Cm"EDC "D"D2 D2 :|
"C"\
|: "D"BAG F2 FE | "Cm"EDC "D"D2 DC | "Cm"GFE "D"F2 FE |1,3 "Cm"EDC "D"D2 DC |2,4 "Cm"EDC D3 z :|
"D"\
|::: "D"GGF GG GF | FFE FF FE | FFE EE ED | EED DD DD :::|
"E"\
|: AAD DD DD | | FFE DD DD | GAD DD DD |1 FFE DD DD :|2  FFE DD DC |]
"F"\
|| "C"C7- | C7 | {^F}G7- | G7 || [K:=e=F][K:Cmix]
"G"\
|: "C"ccB BA AG | ABG =Bc cG | ccB BA AG |1,3 ABG =Bc cG :|2,4 ABG =Bc c2 :|
"H"\
|::: "C"BAG ^FG GC | DDC ^FG GC | ^FGA GF GC | EEC ^FG GC :::|
"I"\
|: "F"AAz AA AG | "C"GGF EE EC | "G7"EFz FF FE | "C"EED CC C2 |
|  "F"A3  AA AG | "C"GGF EE ED | "G7"EFD EE ED | "C"DDC C2 z2 :|
%%newpage
